X:4
T:Martin Wynne's #3
C:Martin Wynne 1914-98
R:reel
D:Brian Conway, First Through the Gate
Z:Paul Stewart Cranford (P.S.C.), <http://www.cranfordpub.com>
L:1/8
Q:333
M:C|
K:G
dged B2 Ac|BGdG EAAc|BGdB cdef|~g3 a gfeB|
dged B2 Ac|BGdG EAAc|BGdB cdeg|[1fgaf gfeB:|[2fgaf g2 ba||
|:~g3 a gfeB|dged BGBc|dg{a}gf gfeB|dega bg{a}gf|
gbaf gfeB|dged BGBc|dg{a}gf gfeg|[1fgaf g2 ba:|[2fgaf g2 fe|]
